images/ewtb.svg

<svg height="250" viewBox="0 0 250 250" width="250" xmlns="http://www.w3.org/2000/svg"><path d="m249.988281 124.992188c0 69.035156-55.960937 124.996093-124.996093 124.996093-69.03125 0-124.992188-55.960937-124.992188-124.996093 0-69.03125 55.960938-124.992188 124.992188-124.992188 69.035156 0 124.996093 55.960938 124.996093 124.992188zm0 0" fill="#a566ff"/><g fill="#fff"><path d="m119.195312 186.476562c-6.808593 4.875-14.964843 7.519532-23.339843 7.574219-14.394531 0-27.765625-7.914062-37.644531-22.242187-8.636719-12.5625-13.699219-28.785156-14.390626-46.238282-.023437-.625.332032-1.203124.902344-1.464843l9.785156-4.398438c.472657-.214843 1.019532-.171875 1.453126.109375.433593.277344.695312.761719.695312 1.277344 0 16.472656 4.34375 31.859375 12.246094 43.363281 7.390625 10.742188 17.007812 16.667969 26.992187 16.667969 5.425781-.0625 10.710938-1.71875 15.203125-4.761719.679688-.445312 1.585938-.285156 2.066406.363281 1.914063 2.625 4.011719 5.109376 6.28125 7.433594.3125.324219.464844.769532.417969 1.214844-.046875.449219-.292969.851562-.667969 1.101562zm0 0"/><path d="m191.683594 171.78125c-9.867188 14.394531-23.238282 22.246094-37.644532 22.246094s-27.777343-7.917969-37.65625-22.246094c-9.367187-13.632812-14.523437-31.625-14.523437-50.6875 0-17.597656 10.140625-31.402344 23.09375-31.402344s23.082031 13.792969 23.082031 31.402344c.171875 15.390625-3.460937 30.582031-10.585937 44.226562-.238281.441407-.679688.738282-1.179688.796876-.5.054687-1-.132813-1.332031-.511719-1.191406-1.363281-2.300781-2.792969-3.324219-4.289063-1.179687-1.722656-2.257812-3.507812-3.230469-5.351562-.195312-.414063-.195312-.894532 0-1.308594 4.566407-10.582031 6.871094-22 6.765626-33.523438 0-8.714843-4.34375-18.460937-10.15625-18.460937-5.808594 0-10.164063 9.746094-10.164063 18.460937 0 16.472657 4.355469 31.859376 12.257813 43.363282 7.394531 10.742187 17.011718 16.667968 26.992187 16.667968 9.984375 0 19.628906-5.925781 26.996094-16.667968 7.847656-11.503906 12.257812-26.890625 12.257812-43.363282 0-16.472656-4.355469-31.859374-12.257812-43.347656-2.261719-3.339844-4.941407-6.375-7.984375-9.027344-.425782-.335937-.640625-.875-.566406-1.414062.074218-.539062.429687-.996094.933593-1.203125l9.722657-4.355469c.578124-.269531 1.265624-.140625 1.714843.3125 2.507813 2.570313 4.789063 5.355469 6.816407 8.320313 9.367187 13.621093 14.535156 31.625 14.535156 50.675781s-5.195313 37.054688-14.5625 50.6875zm0 0"/></g></svg>

<svg xmlns="http://www.w3.org/2000/svg" xmlns:xlink="http://www.w3.org/1999/xlink" width="250px" height="250px" viewBox="0 0 250 250" version="1.1">
<g id="surface1">
<path style=" stroke:none;fill-rule:nonzero;fill:rgb(64.705884%,40.000001%,100%);fill-opacity:1;" d="M 249.988281 124.992188 C 249.988281 194.027344 194.027344 249.988281 124.992188 249.988281 C 55.960938 249.988281 0 194.027344 0 124.992188 C 0 55.960938 55.960938 0 124.992188 0 C 194.027344 0 249.988281 55.960938 249.988281 124.992188 Z M 249.988281 124.992188 "/>
<path style=" stroke:none;fill-rule:nonzero;fill:rgb(100%,100%,100%);fill-opacity:1;" d="M 119.195312 186.476562 C 112.386719 191.351562 104.230469 193.996094 95.855469 194.050781 C 81.460938 194.050781 68.089844 186.136719 58.210938 171.808594 C 49.574219 159.246094 44.511719 143.023438 43.820312 125.570312 C 43.796875 124.945312 44.152344 124.367188 44.722656 124.105469 L 54.507812 119.707031 C 54.980469 119.492188 55.527344 119.535156 55.960938 119.816406 C 56.394531 120.09375 56.65625 120.578125 56.65625 121.09375 C 56.65625 137.566406 61 152.953125 68.902344 164.457031 C 76.292969 175.199219 85.910156 181.125 95.894531 181.125 C 101.320312 181.0625 106.605469 179.40625 111.097656 176.363281 C 111.777344 175.917969 112.683594 176.078125 113.164062 176.726562 C 115.078125 179.351562 117.175781 181.835938 119.445312 184.160156 C 119.757812 184.484375 119.910156 184.929688 119.863281 185.375 C 119.816406 185.824219 119.570312 186.226562 119.195312 186.476562 Z M 119.195312 186.476562 "/>
<path style=" stroke:none;fill-rule:nonzero;fill:rgb(100%,100%,100%);fill-opacity:1;" d="M 191.683594 171.78125 C 181.816406 186.175781 168.445312 194.027344 154.039062 194.027344 C 139.632812 194.027344 126.261719 186.109375 116.382812 171.78125 C 107.015625 158.148438 101.859375 140.15625 101.859375 121.09375 C 101.859375 103.496094 112 89.691406 124.953125 89.691406 C 137.90625 89.691406 148.035156 103.484375 148.035156 121.09375 C 148.207031 136.484375 144.574219 151.675781 137.449219 165.320312 C 137.210938 165.761719 136.769531 166.058594 136.269531 166.117188 C 135.769531 166.171875 135.269531 165.984375 134.9375 165.605469 C 133.746094 164.242188 132.636719 162.8125 131.613281 161.316406 C 130.433594 159.59375 129.355469 157.808594 128.382812 155.964844 C 128.1875 155.550781 128.1875 155.070312 128.382812 154.65625 C 132.949219 144.074219 135.253906 132.65625 135.148438 121.132812 C 135.148438 112.417969 130.804688 102.671875 124.992188 102.671875 C 119.183594 102.671875 114.828125 112.417969 114.828125 121.132812 C 114.828125 137.605469 119.183594 152.992188 127.085938 164.496094 C 134.480469 175.238281 144.097656 181.164062 154.078125 181.164062 C 164.0625 181.164062 173.707031 175.238281 181.074219 164.496094 C 188.921875 152.992188 193.332031 137.605469 193.332031 121.132812 C 193.332031 104.660156 188.976562 89.273438 181.074219 77.785156 C 178.8125 74.445312 176.132812 71.410156 173.089844 68.757812 C 172.664062 68.421875 172.449219 67.882812 172.523438 67.34375 C 172.597656 66.804688 172.953125 66.347656 173.457031 66.140625 L 183.179688 61.785156 C 183.757812 61.515625 184.445312 61.644531 184.894531 62.097656 C 187.402344 64.667969 189.683594 67.453125 191.710938 70.417969 C 201.078125 84.039062 206.246094 102.042969 206.246094 121.09375 C 206.246094 140.144531 201.050781 158.148438 191.683594 171.78125 Z M 191.683594 171.78125 "/>
</g>
</svg>
